frontend/public/svg/gender symbols/gay.svg

<svg width="135" height="136" viewBox="0 0 135 136" fill="none" xmlns="http://www.w3.org/2000/svg">
<g clip-path="url(#clip0)">
<path d="M124.797 45.4765L99.5692 70.3912C101.53 74.1658 103.696 77.5952 105.167 81.2996C110.221 94.0266 109.318 106.596 103.194 118.73C100.13 124.843 94.795 129.515 88.3314 131.747C78.5906 135.436 67.9593 136.083 57.8431 133.601C44.5562 130.312 36.8567 121.305 33.4215 108.363C32.7356 105.78 32.3169 103.126 31.7518 100.392C29.9141 99.9744 28.1553 99.6475 26.4396 99.1756C13.3739 95.5802 5.81081 86.7327 2.37685 73.9407C-0.786697 62.1549 0.670391 51.0259 7.13468 40.6347C8.06248 39.0964 9.19401 37.6907 10.4984 36.4554C16.3623 31.0301 23.5958 27.3081 31.4192 25.6912C38.6958 24.1721 46.2357 24.4817 53.3632 26.5924C56.8714 27.5697 60.1758 29.2756 62.8189 30.3468L85.9337 7.95697C82.4965 7.95697 79.4957 7.9802 76.4963 7.94542C75.3739 7.97377 74.2516 7.88005 73.1489 7.66628C72.49 7.50488 71.9039 7.12719 71.4851 6.59331C71.0657 6.05943 70.8386 5.40036 70.8386 4.72172C70.8386 4.04309 71.0657 3.38401 71.4851 2.85014C71.9039 2.31625 72.49 1.93823 73.1489 1.77685C74.0265 1.59286 74.9224 1.51262 75.8183 1.53746C82.4401 1.38782 89.0625 1.26365 95.685 1.11859C98.7592 1.05296 100.339 2.10323 100.881 5.18802C101.793 10.3777 102.536 15.6002 103.213 20.8273C103.606 23.8465 101.654 26.3457 99.1504 26.3825C96.8001 26.4173 94.9269 24.2055 94.8921 21.2519C94.9321 17.9434 94.7956 14.635 94.4812 11.3412C85.1724 19.0335 77.1152 27.8245 68.3144 36.2657C73.1621 43.2071 76.4838 50.701 77.2281 59.3404C83.2264 60.6058 89.3047 61.4284 93.7927 65.1708L116.629 42.8486C115.917 42.6722 115.193 42.5454 114.463 42.4692C111.772 42.3799 109.07 42.3865 106.376 42.2907C103.3 42.1811 101.76 41.0227 101.834 38.9782C101.906 36.975 103.469 35.9592 106.612 35.9087C108.187 35.8838 109.758 35.9368 111.331 35.9007C116.381 35.7852 121.43 35.6702 126.479 35.5068C129.768 35.3992 131.336 36.3981 131.912 39.6772C132.839 44.9778 133.622 50.3032 134.261 55.6533C134.348 56.2424 134.317 56.843 134.168 57.4198C134.019 57.9964 133.756 58.5373 133.394 59.0103C133.031 59.4832 132.578 59.8786 132.061 60.173C131.543 60.4673 130.971 60.6547 130.379 60.7239C128.103 60.9077 126.188 58.9815 125.928 56.1782C125.92 55.506 125.951 54.8339 126.022 54.1653C126.054 53.0443 126.135 51.9186 126.069 50.8028C125.97 49.139 125.763 47.4819 125.601 45.822L124.797 45.4765ZM68.1299 59.108C68.231 58.708 68.2914 58.2989 68.3104 57.8867C68.1601 56.775 67.9422 55.6735 67.6587 54.588C64.4191 43.9448 58.6501 35.9782 46.8242 33.6948C37.373 31.8695 28.3961 31.9884 20.0009 37.3704C16.3346 39.7207 13.2739 42.5551 11.2714 46.4898C4.77364 59.272 6.5197 71.5687 13.9297 83.2036C17.873 89.3955 24.1641 92.3569 31.7028 93.2948C34.5887 71.9947 47.7043 61.5601 68.1299 59.108ZM77.2655 68.222C76.9925 69.5662 76.7654 70.642 76.5553 71.7216C73.6058 86.883 65.6746 96.8817 49.1992 99.5727C45.8014 100.128 42.3689 100.471 38.4289 100.979C39.5907 104.869 40.3788 108.614 41.8129 112.092C45.2711 120.485 51.6337 125.58 60.5448 127.389C68.7856 129.062 76.8769 128.227 84.7674 125.514C89.6342 123.841 93.5138 120.682 95.6935 116.033C101.923 102.747 101.523 89.7401 93.1338 77.4049C89.4694 72.0111 84.1813 69.0805 77.2655 68.222ZM68.4095 67.231C51.0659 65.972 38.3055 80.3361 38.9232 93.4582C56.8445 93.8947 67.5674 85.6445 68.4095 67.231Z" fill="black"/>
</g>
<defs>
<clipPath id="clip0">
<rect width="133.893" height="134.549" fill="white" transform="translate(0.503662 0.690918)"/>
</clipPath>
</defs>
</svg>

<svg xmlns="http://www.w3.org/2000/svg" width="135" height="136" fill="none" viewBox="0 0 135 136"><g clip-path="url(#a)"><path fill="#000" d="M124.797 45.477 99.569 70.39c1.961 3.775 4.127 7.204 5.598 10.909 5.054 12.727 4.151 25.296-1.973 37.43a26.2 26.2 0 0 1-14.863 13.017 51.46 51.46 0 0 1-30.488 1.854c-13.287-3.289-20.986-12.296-24.421-25.238-.686-2.583-1.105-5.237-1.67-7.971-1.838-.418-3.597-.745-5.312-1.216C13.374 95.58 5.81 86.733 2.377 73.94-.787 62.155.67 51.026 7.135 40.635a20 20 0 0 1 3.363-4.18A43.9 43.9 0 0 1 31.42 25.691a44.94 44.94 0 0 1 21.944.901c3.508.978 6.813 2.684 9.456 3.755l23.115-22.39c-3.437 0-6.438.023-9.438-.012a15.5 15.5 0 0 1-3.347-.279 3.031 3.031 0 0 1 0-5.89 11.5 11.5 0 0 1 2.67-.239c6.621-.15 13.243-.273 19.866-.418 3.074-.066 4.654.984 5.196 4.069.912 5.19 1.655 10.412 2.332 15.64.393 3.018-1.559 5.518-4.063 5.555-2.35.034-4.223-2.177-4.258-5.131a93 93 0 0 0-.41-9.91c-9.31 7.692-17.367 16.483-26.168 24.924 4.848 6.941 8.17 14.435 8.914 23.074 5.998 1.266 12.077 2.088 16.565 5.83l22.836-22.321a16 16 0 0 0-2.166-.38c-2.691-.09-5.393-.083-8.087-.178-3.076-.11-4.616-1.268-4.542-3.313.072-2.003 1.635-3.019 4.778-3.07 1.575-.024 3.146.029 4.719-.007 5.05-.116 10.099-.23 15.148-.394 3.289-.108 4.857.891 5.433 4.17q1.39 7.95 2.349 15.976a4.46 4.46 0 0 1-.867 3.357 4.45 4.45 0 0 1-3.015 1.714c-2.276.184-4.191-1.743-4.451-4.546a17 17 0 0 1 .094-2.013c.032-1.12.113-2.246.047-3.362-.099-1.664-.306-3.321-.468-4.981zM68.13 59.108c.101-.4.161-.81.18-1.221a28 28 0 0 0-.651-3.299c-3.24-10.643-9.009-18.61-20.835-20.893-9.451-1.826-18.428-1.707-26.823 3.675-3.666 2.35-6.727 5.185-8.73 9.12C4.774 59.272 6.52 71.569 13.93 83.204c3.943 6.192 10.234 9.153 17.773 10.09 2.886-21.3 16.001-31.734 36.427-34.186m9.136 9.114c-.273 1.344-.5 2.42-.71 3.5-2.95 15.161-10.881 25.16-27.357 27.85-3.398.556-6.83.899-10.77 1.407 1.162 3.89 1.95 7.635 3.384 11.113 3.458 8.393 9.82 13.488 18.732 15.297 8.24 1.673 16.332.838 24.222-1.875 4.867-1.673 8.747-4.832 10.927-9.481 6.229-13.286 5.829-26.293-2.56-38.628-3.665-5.394-8.953-8.324-15.868-9.183m-8.857-.991c-17.343-1.259-30.104 13.105-29.486 26.227 17.921.437 28.644-7.814 29.486-26.227"/></g><defs><clipPath id="a"><path fill="#fff" d="M.504.69h133.893v134.55H.504z"/></clipPath></defs></svg>
